!!!SOCIAL_FUNCTION:	social gatherings
!!!PDT:	1939
!!!OTL: No_92_"I_Am_Getting_Old".krn
!!!LANG: Non-Tone
!!!LING_GROUP: Wakashan
!!!REG: Pacific Northwest
**kern
*staff1
=1-
*clefF4
*k[f#c#g#d#a#]
*M3/4
2r
8d#\L
16d#\L
16c#\JJ
=2
4..d#\
16B\
8d#\L
16d#\L
16c#\JJ
=3||
*M7/8
4B\
8F#\
16r
16d#\LK
8c#\
8d#\
16d#\L
16c#\JJ
=4||
*M3/4
4B\
4c#\
8d#\L
16c#\L
16B\JJ
=5
8.G#\L
16F#\Jk
4D#;\
8G#\L
16G#\L
16F#\JJ
=6||
*M7/8
4C#/
8BB/
16r
16C#/LK
8C#/
8D#/
16D#/L
16C#/JJ
=7||
*M2/4
4.BB/
8BB/
=8
4BB/
4BB/
=9
4BB/
8BB/
8r
==
*-
